X: 1748
T: Neil Gow's Farewell to the Whisky
C:Neil Gow, 1727-1807
B: australian traditional tunes wiki
M:2/4
L:1/16
R: Set Tune
Q: 1/4=100
K:G
V:1 
|:"G"D2G2 B2G2|"C"A2G2 E2GE|"G"D2G2 G2Bc|"D7"d2ed "G"B2d2|
"Em"g4"G"d2B2|"Em"B2AG "D7"A2B2|"G"D2G2 "D7"A2GA|1"G"B3G G3E:|2"G"B2G2 G2Bc||
|:"G"d2B2 "C"g2fe|"G"d2B2"Em"g4|"C"edefg4|"G"gage d2B2|
"D7"dBAG A2B2|"G"D2G2 "D7"BAGA|1"G"B2G2 G2Bc:|2"G"B2G2G4||
% abcbook-tune_id 6342d53ae50dd6972835eef6


% abcbook-boost 0
% abcbook-tablature 
% abcbook-transpose 
% abcbook-lastupdated 1665324381604
% abcbook-soundfonts 
% abcbook-repeats 1
% NFF Book 2014

